assets/icons/network/wireless/signal-ok.svg

<?xml version="1.0" encoding="UTF-8" standalone="no"?>
<svg viewBox="0 0 24 24" height="24" width="24" version="1.1" id="svg8" sodipodi:docname="wireless-signal-ok.svg" inkscape:version="1.1 (ce6663b3b7, 2021-05-25)"
   xmlns:inkscape="http://www.inkscape.org/namespaces/inkscape"
   xmlns:sodipodi="http://sodipodi.sourceforge.net/DTD/sodipodi-0.dtd"
   xmlns="http://www.w3.org/2000/svg"
   xmlns:svg="http://www.w3.org/2000/svg">
   <defs id="defs12" />
   <sodipodi:namedview id="namedview10" pagecolor="#ffffff" bordercolor="#666666" borderopacity="1.0" inkscape:pageshadow="2" inkscape:pageopacity="0.0" inkscape:pagecheckerboard="0" showgrid="false" inkscape:zoom="28" inkscape:cx="7.4464286" inkscape:cy="11.5" inkscape:window-width="1920" inkscape:window-height="1043" inkscape:window-x="1920" inkscape:window-y="0" inkscape:window-maximized="1" inkscape:current-layer="svg8" inkscape:snap-page="true" />
   <path id="path1857" style="color:#000000;fill:#808080;fill-opacity:1;-inkscape-stroke:none" d="M 12 5 C 5.8055617 5 2.6210937 8.6738281 2.6210938 8.6738281 L 2.3476562 8.9921875 L 12 20.789062 L 12.386719 20.316406 L 21.652344 8.9921875 L 21.378906 8.6738281 C 21.378906 8.6738281 18.194438 5 12 5 z M 12 6 C 17.362262 6 19.896941 8.6390295 20.294922 9.0722656 L 17.115234 12.958984 C 15.830905 12.424508 14.145062 12 12 12 C 9.8549375 12 8.1690949 12.424508 6.8847656 12.958984 L 3.7050781 9.0722656 C 4.1030586 8.6390295 6.6377381 6.0000001 12 6 z " />
</svg>

<svg height="24" width="24" xmlns="http://www.w3.org/2000/svg"><path style="color:#000;fill:gray;fill-opacity:1;-inkscape-stroke:none" d="M12 5C5.806 5 2.621 8.674 2.621 8.674l-.273.318L12 20.79l.387-.473 9.265-11.324-.273-.318S18.194 5 12 5zm0 1c5.362 0 7.897 2.639 8.295 3.072l-3.18 3.887C15.831 12.425 14.145 12 12 12s-3.83.425-5.115.959l-3.18-3.887C4.103 8.64 6.638 6 12 6z"/></svg>
